X: 3
T: Missa In myne zin / Sanctus
N: Derived from Agr1001c-Missa_In_myne_zin-Sanctus.krn
C: Alexander Agricola
%%abc-version 2.0
%%abcx-abcm2ps-target-version 5.9.1 (29 Sep 2008)
%%abc-creator hum2abc beta
%%abcx-conversion-date 2019/02/16 20:17:14
%%abc-edited-by Jesse Rodin
%%abc-edited-by Joel Chapman 2013/09/04
%%abcx-initial-encoding-date 2013/09/04/
%%humdrum-veritas 197596739
%%humdrum-veritas-data 2596861008
%%linebreak <none>
%%barnumbers 0
L: 1/4
M: 3/1
Q: 1/2=120
%%staves [1 2 3 4]
V: 1 clef=treble
V: 2 clef=treble-8
V: 3 clef=treble-8
V: 4 clef=bass
K: F
[V:1] D12 | 
[V:2] d8f4 | 
[V:3] z12 | 
[V:4] z12 | 
[V:1] A8=B4 | 
[V:2] f2f3edcd4 | 
[V:3] D8D4 | 
[V:4] z12 | 
[V:1] c4d8 | 
[V:2] c4f8 | 
[V:3] A6B2A2B2 | 
[V:4] z4D,8 | 
[V:1] c4=B2A4GF | 
[V:2] e4z4z4 | 
[V:3] c4d3c2=B/A/=B2 | 
[V:4] A,4G,2F,2D,4 | 
[V:1] E4D2E2F4 | 
[V:2] z12 | 
[V:3] c4=B2A4GF | 
[V:4] C,4G,,2C,2D,4 | 
[V:1] G4F2G2A4 | 
[V:2] z12 | 
[V:3] E2G2A2=B2c2d2- | 
[V:4] C,4z4z4 | 
[V:1] B3A/G/A2G3F/E/F2 | 
[V:2] z12 | 
[V:3] d2G2F2G2A4 | 
[V:4] z12 | 
[V:1] E2D4C2B,4 | 
[V:2] z12 | 
[V:3] z2B4A3GG2- | 
[V:4] z12 | 
[V:1] A,4z2E2F2G2- | 
[V:2] z12 | 
[V:3] G2^F2G4A2=B2 | 
[V:4] z12 | 
[V:1] G2E4G2A2=B2 | 
[V:2] z12 | 
[V:3] c4c2=Bc2AG2 | 
[V:4] z12 | 
[V:1] c6=BAB4 | 
[V:2] z12 | 
[V:3] A2F2A4G2d2- | 
[V:4] z12 | 
[V:1] A4z2A4GF | 
[V:2] z12 | 
[V:3] d2c2d4c2=BA | 
[V:4] z12 | 
[V:1] E4(3:2:4D4E2-E2F4 | 
[V:2] z12 | 
[V:3] G2c2z2G2A4 | 
[V:4] z12 | 
[V:1] (3:2:7G4A2-A2=B4c3BA2 | 
[V:2] z12 | 
[V:3] =B2c2d4c4 | 
[V:4] z12 | 
[V:1] (3G2A2=B2(3:2:6G2A3GG2E2F2 | 
[V:2] z12 | 
[V:3] (3:2:8c2d4e2c2d2e3cd2 | 
[V:4] z12 | 
[V:1] (3G2E2F2(3D2E2C2(3D2E2F2 | 
[V:2] z12 | 
[V:3] (3:2:10=B2c2d2=B2c3A=B2=B2A G | 
[V:4] z12 | 
[V:1] (3:2:7F2E2A2A2^G ^FG2A4- | 
[V:2] z4z4f4 | 
[V:3] (3:2:8A =Bc2d c =B A=B4A3=B | 
[V:4] z4z4D,4 | 
[V:1] A12 | 
[V:2] e2f4edc4 | 
[V:3] c2F2D4E4 | 
[V:4] C,2D,4C,B,,A,,4 | 
[V:1] z12 | 
[V:2] d4z4z4 | 
[V:3] D4E2F3Dd2- | 
[V:4] A,4G,2A,4G,F, | 
[V:1] z12 | 
[V:2] z4z4d4 | 
[V:3] d2^c2d4z4 | 
[V:4] E,4D,4z2D,2 | 
[V:1] z12 | 
[V:2] c2d4c=BA4 | 
[V:3] z12 | 
[V:4] E,2D,2G,2G,3F,/E,/F,2 | 
[V:1] z12 | 
[V:2] G4d2e2f3e/d/ | 
[V:3] z12 | 
[V:4] G,2C,2z2C,2D,2B,,2 | 
[V:1] z12 | 
[V:2] c3/=B/AG/F/EF2EF2z2 | 
[V:3] z4z4A3c- | 
[V:4] A,,3C,2B,,/A,,/G,,2F,,2F,2 | 
[V:1] z12 | 
[V:2] z4zc2=Bc2A2 | 
[V:3] c=B/A/G2F4z4 | 
[V:4] zF,2E,F,2D,2C,4 | 
[V:1] z12 | 
[V:2] GAFE2A2GA4 | 
[V:3] z4z4zEFG- | 
[V:4] C,2D,C,2A,,B,,2A,,2D,2 | 
[V:1] z12 | 
[V:2] z12 | 
[V:3] G/E/FGA2G/F/E2D2G2 | 
[V:4] C,D,B,,A,,2D,2C,D,2_E,2 | 
[V:1] z12 | 
[V:2] z4z4z2A2 | 
[V:3] FGED2G2^FG2z2 | 
[V:4] D,C,2B,,G,,2A,,2G,,2z2 | 
[V:1] z12 | 
[V:2] =B2c2d4=B2c2 | 
[V:3] z12 | 
[V:4] D,2E,2F,2G,4E,2 | 
[V:1] z12 | 
[V:2] d3e2f3/e/dcd2^c | 
[V:3] z12 | 
[V:4] F,2G,2A,2F,G,E,D,E,2 | 
[V:1] A8A4 | 
[V:2] d4z2A3GFE | 
[V:3] A4F2F3GA2 | 
[V:4] D,12- | 
[V:1] d6c=BA3B | 
[V:2] F2D2d3ef3e/d/ | 
[V:3] D2A3B2A/G/F3G | 
[V:4] D,12 | 
[V:1] c4A2c3=BAG | 
[V:2] c2e3dc=BA4 | 
[V:3] A=Bc3=BAGFc2=B | 
[V:4] A,,12 | 
[V:1] F2E2F2G2A3=B | 
[V:2] z4z4c4 | 
[V:3] A2G2F2C2z2A2- | 
[V:4] z2C,2D,2E,2F,4- | 
[V:1] c2A3GF4E2 | 
[V:2] A3=Bc8 | 
[V:3] A=Bc3=BA2G4 | 
[V:4] F,2F,,6C,4 | 
[V:1] F6E2D4 | 
[V:2] A4D2E2F2D2 | 
[V:3] F3GA2A4G2 | 
[V:4] D,6C,2B,,4 | 
[V:1] C4z2G2A2=B2 | 
[V:2] E2e3d/c/e2d4 | 
[V:3] A3GE4F2G2 | 
[V:4] A,,4C,4z4 | 
[V:1] c8=B4 | 
[V:2] c4z2c2d2e2 | 
[V:3] C2E2F2A2G4 | 
[V:4] F,,8z4 | 
[V:1] A3GE2A4^G2 | 
[V:2] f4z4d2=B2 | 
[V:3] F2c4A2=B4 | 
[V:4] F,4C,2F,2D,2E,2 | 
[V:1] A12- | 
[V:2] c2A2F3DE4 | 
[V:3] A3=Bc2d3^c/=B/^c2 | 
[V:4] C,2D,2z2D,2A,,4 | 
[V:1] A8A4 | 
[V:2] D4d2d3=B^c2 | 
[V:3] d2A2F2D2E4 | 
[V:4] D,8A,,4 | 
[V:1] z2F3EFGA2B2 | 
[V:2] d12- | 
[V:3] D12- | 
[V:4] D,12- | 
[V:1] A12 ||  
[V:2] d12 ||  
[V:3] D12 ||  
[V:4] D,12 ||  
[V:1]  [K:F] [K:clef=treble][M:2/1]G4A4 | 
[V:2]  [K:F] [K:clef=treble-8][M:2/1]z8 | 
[V:3]  [K:F] [K:clef=treble-8][M:2/1]z8 | 
[V:4]  [K:F] [K:clef=bass][M:2/1]z8 | 
[V:1] =B4c4 | 
[V:2] G4A4 | 
[V:3] z8 | 
[V:4] z8 | 
[V:1] z2G4A2- | 
[V:2] =B4c4- | 
[V:3] z8 | 
[V:4] z8 | 
[V:1] A2GFE2A2 | 
[V:2] c8 | 
[V:3] z8 | 
[V:4] z8 | 
[V:1] D2G4^F2 | 
[V:2] =B4A4 | 
[V:3] z8 | 
[V:4] G,,4D,4 | 
[V:1] G4C4 | 
[V:2] z2G2A2GF | 
[V:3] z8 | 
[V:4] E,4F,4 | 
[V:1] z2G2A4 | 
[V:2] E4D4 | 
[V:3] z8 | 
[V:4] G,4F,2F,2- | 
[V:1] F2F4E2 | 
[V:2] A3G/F/G4 | 
[V:3] z8 | 
[V:4] F,2E,D,C,4 | 
[V:1] FEDCD2G2 | 
[V:2] F3EF2E2 | 
[V:3] z8 | 
[V:4] z8 | 
[V:1] F3E/D/E4 | 
[V:2] D2d4^c2 | 
[V:3] z8 | 
[V:4] z8 | 
[V:1] D4F4 | 
[V:2] (3:2:2d8d4 | 
[V:3] z8 | 
[V:4] z8 | 
[V:1] z8 | 
[V:2] (3:2:4d6c2=B2A2 | 
[V:3] z8 | 
[V:4] (3:2:2G,8G,4 | 
[V:1] z8 | 
[V:2] (3=B4d4c4- | 
[V:3] z8 | 
[V:4] (3G,6F,2E,4 | 
[V:1] z8 | 
[V:2] (3:2:5c2=B A=B4c4 | 
[V:3] z8 | 
[V:4] (3:2:2D,8C,4 | 
[V:1] z8 | 
[V:2] (3:2:1=B2A2(3:2:4G F ED4 | 
[V:3] z8 | 
[V:4] (3:2:2D,4F,8 | 
[V:1] z8 | 
[V:2] (3:2:5G4A2=B2A2d2- | 
[V:3] z8 | 
[V:4] (3E,4D,4F,4 | 
[V:1] z8 | 
[V:2] (3:2:1d2e2(3dd4^c2 | 
[V:3] z8 | 
[V:4] (3:2:4G,4F,2G,2E,4 | 
[V:1] z2A4GF | 
[V:2] d4z4 | 
[V:3] z8 | 
[V:4] D,8 | 
[V:1] E4D4 | 
[V:2] c4=B2G2- | 
[V:3] z8 | 
[V:4] z8 | 
[V:1] G3A=B2c2- | 
[V:2] G2FED2C2 | 
[V:3] z8 | 
[V:4] z8 | 
[V:1] c=BAGA4 | 
[V:2] c3=Bc2d2 | 
[V:3] z8 | 
[V:4] z8 | 
[V:1] G8 | 
[V:2] =B2e3dc=B | 
[V:3] z8 | 
[V:4] z8 | 
[V:1] z8 | 
[V:2] AGFEFDG2- | 
[V:3] z8 | 
[V:4] z2D,4C,B,, | 
[V:1] z2C2=B,2C2 | 
[V:2] G2^F2G4- | 
[V:3] z8 | 
[V:4] A,,4G,,4- | 
[V:1] D2C3=B,B,A, | 
[V:2] G2E2D4 | 
[V:3] z8 | 
[V:4] G,,8 | 
[V:1] CDEFG2A2- | 
[V:2] A4z4 | 
[V:3] z8 | 
[V:4] C,3D,E,2F,2- | 
[V:1] A8- | 
[V:2] z8 | 
[V:3] z8 | 
[V:4] F,E,F,G,A,2D,2 | 
[V:1] A2E4G2- | 
[V:2] z8 | 
[V:3] z8 | 
[V:4] F,2G,2A,2B,2 | 
[V:1] GFF4E2 | 
[V:2] z8 | 
[V:3] z8 | 
[V:4] A,2F,2G,4 | 
[V:1] F4A4- | 
[V:2] A8 | 
[V:3] z8 | 
[V:4] F,8 | 
[V:1] A2G2G4- | 
[V:2] c4=B4 | 
[V:3] z8 | 
[V:4] z8 | 
[V:1] G2^FEF4 | 
[V:2] A8 | 
[V:3] z8 | 
[V:4] z8 | 
[V:1] G4E3F | 
[V:2] z4G4 | 
[V:3] z8 | 
[V:4] z8 | 
[V:1] GAG3FED | 
[V:2] E4E4- | 
[V:3] z8 | 
[V:4] z4C,4 | 
[V:1] C2D4^C2 | 
[V:2] E2F2E4 | 
[V:3] z8 | 
[V:4] A,,4A,,4 | 
[V:1] D4z4 | 
[V:2] DEFGF2ED | 
[V:3] z8 | 
[V:4] D,6C,B,, | 
[V:1] z8 | 
[V:2] F2E2D2E2- | 
[V:3] z8 | 
[V:4] D,2C,2B,,2C,2- | 
[V:1] z8 | 
[V:2] EDG4^F2 | 
[V:3] z8 | 
[V:4] C,B,,G,,2A,,4 | 
[V:1] z4D4 | 
[V:2] G4z2G2- | 
[V:3] z8 | 
[V:4] G,,8- | 
[V:1] E2D4C=B, | 
[V:2] G2B4AG | 
[V:3] z8 | 
[V:4] G,,8 | 
[V:1] A,4A4 | 
[V:2] F3EF4 | 
[V:3] z8 | 
[V:4] z8 | 
[V:1] =B2A3Bc2 | 
[V:2] z4c4 | 
[V:3] z8 | 
[V:4] z8 | 
[V:1] =B2A4GF | 
[V:2] d4c4- | 
[V:3] z8 | 
[V:4] z8 | 
[V:1] E3FG2A2- | 
[V:2] c2=BA=B2c2 | 
[V:3] z8 | 
[V:4] z8 | 
[V:1] A2G4^F2 | 
[V:2] d2=BcA4 | 
[V:3] z8 | 
[V:4] z8 | 
[V:1] G4d4 | 
[V:2] G4z4 | 
[V:3] z8 | 
[V:4] z8 | 
[V:1] =B2d3cBA | 
[V:2] d4=B4 | 
[V:3] z8 | 
[V:4] z4G,4 | 
[V:1] G4z4 | 
[V:2] =B4e4- | 
[V:3] z8 | 
[V:4] E,4E,4 | 
[V:1] c8 | 
[V:2] e2dcc4 | 
[V:3] z8 | 
[V:4] A,6G,F, | 
[V:1] c2=B2A2GF | 
[V:2] z8 | 
[V:3] z8 | 
[V:4] A,2G,2F,2G,2- | 
[V:1] EDD4^C2 | 
[V:2] z4z2G2- | 
[V:3] z8 | 
[V:4] G,F,D,2E,4 | 
[V:1] D4=B,3C | 
[V:2] G^F^FEG4- | 
[V:3] z8 | 
[V:4] D,4z4 | 
[V:1] D2E4D2- | 
[V:2] G8 | 
[V:3] z8 | 
[V:4] z8 | 
[V:1] D2G4A2 | 
[V:2] =B4c4 | 
[V:3] z8 | 
[V:4] z8 | 
[V:1] G2c4=B2 | 
[V:2] =B2c2d4 | 
[V:3] z8 | 
[V:4] z4G,,4 | 
[V:1] c4z4 | 
[V:2] c4G4 | 
[V:3] z8 | 
[V:4] C,6B,,2 | 
[V:1] E8 | 
[V:2] c4c3=B | 
[V:3] z8 | 
[V:4] A,,8 | 
[V:1] F2E4A2- | 
[V:2] A2G2A2c2 | 
[V:3] z8 | 
[V:4] z8 | 
[V:1] A2G2A4 | 
[V:2] =B4A2GF | 
[V:3] z8 | 
[V:4] z4A,,3B,, | 
[V:1] z4G4 | 
[V:2] E8 | 
[V:3] z8 | 
[V:4] C,2C,3B,,A,,G,, | 
[V:1] c6=B2 | 
[V:2] z4A4 | 
[V:3] z8 | 
[V:4] F,,8 | 
[V:1] A3GF3E | 
[V:2] d4d3c | 
[V:3] z8 | 
[V:4] z8 | 
[V:1] D4z4 | 
[V:2] =B4=B3A | 
[V:3] z8 | 
[V:4] z4D,4 | 
[V:1] z4D4 | 
[V:2] G2=B3cA2 | 
[V:3] z8 | 
[V:4] G,6F,2 | 
[V:1] G6F2 | 
[V:2] G3A=Bcd2- | 
[V:3] z8 | 
[V:4] E,4z2D,2 | 
[V:1] E4D2G2- | 
[V:2] dc=BA=B4 | 
[V:3] z8 | 
[V:4] G,2G,3F,E,D, | 
[V:1] GFEDEFG2- | 
[V:2] c2G3FED | 
[V:3] z8 | 
[V:4] C,4z4 | 
[V:1] GCC4=B,2 | 
[V:2] E2F2D4 | 
[V:3] z8 | 
[V:4] z8 | 
[V:1] C4z4 | 
[V:2] C4z2E2 | 
[V:3] z8 | 
[V:4] z2E,2G,3F, | 
[V:1] z4E4 | 
[V:2] G2A2G2c2- | 
[V:3] z8 | 
[V:4] E,2A,,2C,3B,, | 
[V:1] A3GF3E | 
[V:2] c=BA3GF2- | 
[V:3] z8 | 
[V:4] A,,4D,3C, | 
[V:1] D2C2G2A2 | 
[V:2] F2F2E2F2 | 
[V:3] z8 | 
[V:4] B,,2A,,2G,,2F,,2 | 
[V:1] GEF2G4 | 
[V:2] E2A2GA=Bc | 
[V:3] z8 | 
[V:4] C,2D,2E,4 | 
[V:1] F2E3DD2- | 
[V:2] d2G2F2G2 | 
[V:3] z8 | 
[V:4] D,2C,2D,2G,,2 | 
[V:1] DCC4G2- | 
[V:2] E4z4 | 
[V:3] z8 | 
[V:4] A,,4E,4- | 
[V:1] GFG2A2c2- | 
[V:2] C4c3=B | 
[V:3] z8 | 
[V:4] E,4F,4- | 
[V:1] c=BA2G4 | 
[V:2] A3=Bcde2- | 
[V:3] z8 | 
[V:4] F,4E,2G,2 | 
[V:1] A4G4- | 
[V:2] e2d2e4- | 
[V:3] z8 | 
[V:4] F,4E,4- | 
[V:1] G8- | 
[V:2] e2dc=B2c2 | 
[V:3] z8 | 
[V:4] E,8- | 
[V:1] G8- | 
[V:2] =B3EE4 | 
[V:3] z8 | 
[V:4] E,4C,4- | 
[V:1] G4C4- | 
[V:2] E4A4 | 
[V:3] z8 | 
[V:4] C,4F,4 | 
[V:1] C8 | 
[V:2] G2A3Gc2- | 
[V:3] z8 | 
[V:4] E,2F,3E,C,2 | 
[V:1] D4E4 | 
[V:2] c2=B2c2A2 | 
[V:3] z8 | 
[V:4] G,4C,4 | 
[V:1] D2E3DG2- | 
[V:2] =B2c3=BG2 | 
[V:3] z8 | 
[V:4] z2C,3D,E,2 | 
[V:1] G2F2G2E2 | 
[V:2] A4G4 | 
[V:3] z8 | 
[V:4] D,4E,2C,2 | 
[V:1] F2G3FD2 | 
[V:2] z2=B2c2d2- | 
[V:3] z8 | 
[V:4] D,2E,4F,2 | 
[V:1] E4D4 | 
[V:2] d2c2d2=B2 | 
[V:3] z8 | 
[V:4] G,2A,2D,4 | 
[V:1] E2F3EA2- | 
[V:2] c2d3cA2 | 
[V:3] z8 | 
[V:4] z2D,3E,F,2 | 
[V:1] A2G2A2F2 | 
[V:2] =B4A4 | 
[V:3] z8 | 
[V:4] D,2E,2F,4 | 
[V:1] G2A3GE2 | 
[V:2] =B2A2c2c2- | 
[V:3] z8 | 
[V:4] E,2F,3E,C,2 | 
[V:1] F3GE4 ||  
[V:2] cBBAc4 ||  
[V:3] z8 ||  
[V:4] D,4C,4 ||  
[V:1]  [K:F] [K:clef=treble][M:3/1]A12- | 
[V:2]  [K:F] [K:clef=treble-8][M:3/1]f12- | 
[V:3]  [K:F] [K:clef=treble-8][M:3/1]d8d4 | 
[V:4]  [K:F] [K:clef=bass][M:3/1]D,12 | 
[V:1] A4F2G2A3=B | 
[V:2] f4d2e2f4 | 
[V:3] A6G2F4 | 
[V:4] F,6E,2D,4 | 
[V:1] c4c3=BA2GF | 
[V:2] e4E4F4 | 
[V:3] G6c3AB2 | 
[V:4] C,8D,4 | 
[V:1] E2F3GA3GFE | 
[V:2] G2F2D8 | 
[V:3] c2A2B2G2F4 | 
[V:4] C,2D,3E,F,G,A,4 | 
[V:1] F2A3GG4^F2 | 
[V:2] d2d2c=Bc2d4 | 
[V:3] z2d2=B2G2A4 | 
[V:4] F,2D,2E,4D,4 | 
[V:1] G4z4z4 | 
[V:2] =B4c2e3dd2- | 
[V:3] G4z2A2F2D2 | 
[V:4] z2E,2C,2A,,2B,,4 | 
[V:1] A8=B4 | 
[V:2] d2^c2d8 | 
[V:3] E4F4G4 | 
[V:4] A,,4D,4G,,4- | 
[V:1] d8c4- | 
[V:2] =B4d4e3d | 
[V:3] G3A=B2c6 | 
[V:4] G,,4z4C,4- | 
[V:1] c2=BAG4F4 | 
[V:2] e2f4e2f4- | 
[V:3] G4c4F4 | 
[V:4] C,8D,4- | 
[V:1] A6GFE4- | 
[V:2] f8g4- | 
[V:3] D2F3ED2C4- | 
[V:4] D,4D,4G,4 | 
[V:1] E4E3FG2A2 | 
[V:2] g4g3fedc2- | 
[V:3] C4C3DE2F2 | 
[V:4] G,3F,E,D,C,4F,2 | 
[V:1] G2F4E2F4 | 
[V:2] c2c3=Bc2A2F2 | 
[V:3] C2F2G4F4- | 
[V:4] E,2F,2C,4F,,4- | 
[V:1] A8G3F | 
[V:2] f8e4 | 
[V:3] F4c4c3=B | 
[V:4] F,,8C,4- | 
[V:1] E2C2D4C4 | 
[V:2] z4z4z2e2- | 
[V:3] G2A2GFG2A4 | 
[V:4] C,4B,,4A,,2C,2 | 
[V:1] z4z4z2A2- | 
[V:2] edd4^c2d4 | 
[V:3] z4z2G2F2D2 | 
[V:4] D,2F,2E,4D,2F,2 | 
[V:1] AGG4^F2G2d2- | 
[V:2] z2d3cd2=B2G2 | 
[V:3] E2G2D4z2=B2 | 
[V:4] G,2B,2A,4G,4 | 
[V:1] dcc4=B2c4 | 
[V:2] z2g3fg2e2c2 | 
[V:3] c2e2d4c4- | 
[V:4] C,4G,4C,4- | 
[V:1] z4c4A3=B | 
[V:2] e4e3d/e/f4 | 
[V:3] c4A3=Bc2c2- | 
[V:4] C,4z4F,4- | 
[V:1] c2c3=BAGF4 | 
[V:2] F3GA2D2z2d2- | 
[V:3] c=BAGF8- | 
[V:4] F,8D,4 | 
[V:1] B6AGA4- | 
[V:2] d2d2d4d3e | 
[V:3] F8D4- | 
[V:4] B,,8F,4- | 
[V:1] A4z4A4- | 
[V:2] f2f4e2f4 | 
[V:3] D4C4F4 | 
[V:4] F,4G,4D,4 | 
[V:1] A4F4G3F | 
[V:2] f3e/d/c2d2e3d/c/ | 
[V:3] A6GFc2=BA | 
[V:4] F,6E,D,C,4 | 
[V:1] E3D/C/D2C4=B,2 | 
[V:2] =B2c=BAGG2A2F2 | 
[V:3] G2A2F2E2D4 | 
[V:4] z4z4F,4 | 
[V:1] C2c2=B2c3BA2- | 
[V:2] G4d2c4d2 | 
[V:3] C4z4A4 | 
[V:4] E,3F,G,2A,2F,4 | 
[V:1] A2G2c3=BAGF2- | 
[V:2] e3dc=BA4A2- | 
[V:3] =B4A2c3=BAG | 
[V:4] E,4A,,3B,,C,2D,2- | 
[V:1] FED4^C2D4- | 
[V:2] AG/A/B2A4F3G | 
[V:3] F2G2E4D4- | 
[V:4] D,2G,,2A,,4D,4- | 
[V:1] D12 ||  
[V:2] A4A8 ||  
[V:3] D12 ||  
[V:4] D,12 ||  
[V:1]  [K:F] [K:clef=treble][M:2/1]D8 | 
[V:2]  [K:F] [K:clef=treble-8][M:2/1]z8 | 
[V:3]  [K:F] [K:clef=treble-8][M:2/1]d6=B2- | 
[V:4]  [K:F] [K:clef=bass][M:2/1]z8 | 
[V:1] D4D3C/D/ | 
[V:2] z8 | 
[V:3] Bcd2G2F2 | 
[V:4] z8 | 
[V:1] E2D4G2- | 
[V:2] z8 | 
[V:3] G3A=B2c2 | 
[V:4] z8 | 
[V:1] G2^F2G4 | 
[V:2] z4d3c | 
[V:3] A4z4 | 
[V:4] z4G,4- | 
[V:1] z8 | 
[V:2] =BAG3FED | 
[V:3] z8 | 
[V:4] G,2E,3F,G,2 | 
[V:1] z8 | 
[V:2] E2D2C2e2- | 
[V:3] z8 | 
[V:4] C,2=B,,2C,3D, | 
[V:1] z8 | 
[V:2] edc4=B2 | 
[V:3] z8 | 
[V:4] E,2F,2D,4 | 
[V:1] z4G4 | 
[V:2] c8 | 
[V:3] z8 | 
[V:4] C,4E,4 | 
[V:1] A8 | 
[V:2] z4f4- | 
[V:3] z8 | 
[V:4] F,3E,D,C,D,2- | 
[V:1] A6GA | 
[V:2] f2edc4 | 
[V:3] z4A4 | 
[V:4] D,2C,B,,A,,4 | 
[V:1] =B2A4d2- | 
[V:2] d4f3e | 
[V:3] G2F2D4 | 
[V:4] z8 | 
[V:1] dc=BAB2A2- | 
[V:2] d8 | 
[V:3] D2G4F2 | 
[V:4] z8 | 
[V:1] AGG2F2ED | 
[V:2] d6cd | 
[V:3] G2FED4 | 
[V:4] z8 | 
[V:1] C8 | 
[V:2] e8- | 
[V:3] A8 | 
[V:4] A,,8 | 
[V:1] [M:3/3](3G2A2=B2(3c2B2G2 | 
[V:2] e8 | 
[V:3] z8 | 
[V:4] E,8 | 
[V:1] (3A4G2F2E2(3:2:1F | 
[V:2] c4A2c2 | 
[V:3] z8 | 
[V:4] F,3C,D,2A,,2 | 
[V:1] (3G2E2F2(3G2A2=B2 | 
[V:2] =B6AG | 
[V:3] z8 | 
[V:4] G,,8 | 
[V:1] (3:2:7c3=B A G^F2E2F2 | 
[V:2] A4A4 | 
[V:3] z8 | 
[V:4] C,4D,4 | 
[V:1] [M:2/1]G4z4 | 
[V:2] [M:3/3](3G2A2=B2(3c2d2e2 | 
[V:3] z8 | 
[V:4] E,6D,C, | 
[V:1] z8 | 
[V:2] (3:2:7f3e d c=B2A2=B2 | 
[V:3] z8 | 
[V:4] D,4D,4 | 
[V:1] z8 | 
[V:2] [M:2/1]c4z4 | 
[V:3] [M:3/3](3E2F2G2(3A2=B2c2 | 
[V:4] C,4A,,4 | 
[V:1] z8 | 
[V:2] z8 | 
[V:3] (3:2:7d3c B AG2F2G2 | 
[V:4] B,,8 | 
[V:1] c6=B2 | 
[V:2] e6de | 
[V:3] [M:2/1]A8 | 
[V:4] A,,4C,4 | 
[V:1] A4G2A2- | 
[V:2] f4e2c2 | 
[V:3] F4c4 | 
[V:4] D,4E,2F,2- | 
[V:1] AGFEF4- | 
[V:2] A2c3=B=BA | 
[V:3] c3=BA2GF | 
[V:4] F,E,D,C,D,4 | 
[V:1] F2EDE4 | 
[V:2] c8 | 
[V:3] G8 | 
[V:4] C,8 | 
[V:1] F8 | 
[V:2] A4z2A2- | 
[V:3] F8 | 
[V:4] D,8 | 
[V:1] z8 | 
[V:2] A2GFEDG2 | 
[V:3] z4G4 | 
[V:4] D,4C,2E,2 | 
[V:1] z4G4 | 
[V:2] F2EDE4 | 
[V:3] A2=B2c2e2 | 
[V:4] D,4C,4 | 
[V:1] A2=B2c4- | 
[V:2] z4c3=B | 
[V:3] d3c/=B/A3G | 
[V:4] z8 | 
[V:1] c4c4 | 
[V:2] A2G2F2E2 | 
[V:3] F2E2F2C2 | 
[V:4] z8 | 
[V:1] A6G2 | 
[V:2] F2C2z4 | 
[V:3] z4F2E2 | 
[V:4] z8 | 
[V:1] F2E2D4 | 
[V:2] z8 | 
[V:3] DCc4=B2 | 
[V:4] z8 | 
[V:1] C4z2G2 | 
[V:2] z2f4e2 | 
[V:3] c2F2G4 | 
[V:4] z8 | 
[V:1] A3=Bc3B/c/ | 
[V:2] f2c3de2 | 
[V:3] F4z4 | 
[V:4] z8 | 
[V:1] =BAA3GG2 | 
[V:2] dc=BA=B4 | 
[V:3] z8 | 
[V:4] z8 | 
[V:1] z2A3GFE | 
[V:2] A3=Bc2dc | 
[V:3] z8 | 
[V:4] z8 | 
[V:1] D2F2E4 | 
[V:2] =BAd3^c^c2 | 
[V:3] z8 | 
[V:4] z8 | 
[V:1] D3EF2GF | 
[V:2] z2d3c=BA | 
[V:3] z8 | 
[V:4] z8 | 
[V:1] EDG4^F2 | 
[V:2] G2=B2A4 | 
[V:3] z8 | 
[V:4] z8 | 
[V:1] G4z4 | 
[V:2] z8 | 
[V:3] G3A=B2c=B | 
[V:4] z2G,3F,E,D, | 
[V:1] z8 | 
[V:2] z8 | 
[V:3] AGc3=B=B2 | 
[V:4] C,2E,2D,4 | 
[V:1] z8 | 
[V:2] z8 | 
[V:3] z2c3=BAG | 
[V:4] C,3D,E,2F,E, | 
[V:1] z8 | 
[V:2] z8 | 
[V:3] F2A2G4 | 
[V:4] D,C,F,3E,E,2 | 
[V:1] z8 | 
[V:2] z8 | 
[V:3] F3GA2BA | 
[V:4] z2F,3E,D,C, | 
[V:1] z8 | 
[V:2] z8 | 
[V:3] GFB4A2 | 
[V:4] B,,2D,2C,4 | 
[V:1] z8 | 
[V:2] z8 | 
[V:3] BABcAGc2 | 
[V:4] B,,2D,2C,2A,,2 | 
[V:1] z8 | 
[V:2] z8 | 
[V:3] B2G2^FE^F2 | 
[V:4] G,,2B,,2A,,4 | 
[V:1] DEFEFGE2- | 
[V:2] z8 | 
[V:3] G2A4GF | 
[V:4] z8 | 
[V:1] EDD4^C2 | 
[V:2] z8 | 
[V:3] GFEDE4 | 
[V:4] z4A,,4 | 
[V:1] D4z4 | 
[V:2] z4z2G2 | 
[V:3] D4z4 | 
[V:4] B,,4C,4 | 
[V:1] z8 | 
[V:2] A2c4=B2 | 
[V:3] z8 | 
[V:4] A,,3B,,C,2D,2 | 
[V:1] z8 | 
[V:2] c3de4 | 
[V:3] z8 | 
[V:4] A,,2C,3D,E,2 | 
[V:1] z8 | 
[V:2] d2e4dc | 
[V:3] z8 | 
[V:4] F,2C,2E,2F,2 | 
[V:1] z8 | 
[V:2] =B2c4=B2 | 
[V:3] z8 | 
[V:4] G,2F,E,D,4 | 
[V:1] z4D4 | 
[V:2] c3d=B4 | 
[V:3] z4z2d2- | 
[V:4] C,4z4 | 
[V:1] F4G4 | 
[V:2] z8 | 
[V:3] dc=BA=B2c2 | 
[V:4] z8 | 
[V:1] A3=Bcdc2- | 
[V:2] z8 | 
[V:3] F4z2A2- | 
[V:4] z8 | 
[V:1] c2=BAB2G2- | 
[V:2] z8 | 
[V:3] A2GFGA=Bc | 
[V:4] z8 | 
[V:1] GA=BcB2AG | 
[V:2] z8 | 
[V:3] =B2G4FE | 
[V:4] z8 | 
[V:1] A2F3GAB | 
[V:2] z8 | 
[V:3] FGABA2F2- | 
[V:4] z8 | 
[V:1] A2GFG2E2- | 
[V:2] z8 | 
[V:3] F2EDEFGA | 
[V:4] z8 | 
[V:1] EFGAG2FE | 
[V:2] z8 | 
[V:3] G2E4DC | 
[V:4] z8 | 
[V:1] F3GE4 | 
[V:2] z8 | 
[V:3] D2d4^c2 | 
[V:4] z8 | 
[V:1] D4z4 | 
[V:2] D3EF3G | 
[V:3] d4z4 | 
[V:4] F,4D,4- | 
[V:1] z8 | 
[V:2] A3BcBAG | 
[V:3] z8 | 
[V:4] D,2C,B,,A,,4 | 
[V:1] z8 | 
[V:2] FEDCDCG2- | 
[V:3] z8 | 
[V:4] D,2B,,3A,,G,,2 | 
[V:1] z8 | 
[V:2] G2F2G2B2- | 
[V:3] z8 | 
[V:4] A,,4G,,2D,2- | 
[V:1] z8 | 
[V:2] BAA4G2 | 
[V:3] z8 | 
[V:4] D,A,,C,2B,,4 | 
[V:1] z8 | 
[V:2] A4z4 | 
[V:3] z8 | 
[V:4] A,,4z4 | 
[V:1] A3GF2ED | 
[V:2] z8 | 
[V:3] DEFGA2GF | 
[V:4] z8 | 
[V:1] C2D2E2G2- | 
[V:2] z4G4 | 
[V:3] EDF2E4 | 
[V:4] z8 | 
[V:1] GFF4E2 | 
[V:2] A4G4 | 
[V:3] D4z4 | 
[V:4] z4C,4 | 
[V:1] F4z4 | 
[V:2] F2D2E2G2- | 
[V:3] z8 | 
[V:4] D,4C,4 | 
[V:1] z4G4 | 
[V:2] GFF4E2 | 
[V:3] z8 | 
[V:4] B,,2A,,2G,,4 | 
[V:1] A6GF | 
[V:2] FGA=Bc2=BA | 
[V:3] z8 | 
[V:4] F,,8 | 
[V:1] G2F4E2 | 
[V:2] =BcA2G4 | 
[V:3] z8 | 
[V:4] z8 | 
[V:1] F4A4- | 
[V:2] F4f4- | 
[V:3] z8 | 
[V:4] z8 | 
[V:1] A2G2F4 | 
[V:2] f2e2d4- | 
[V:3] D8 | 
[V:4] z8 | 
[V:1] E3DE4 | 
[V:2] d2c=Bc4 | 
[V:3] A8 | 
[V:4] z8 | 
[V:1] D2G4FE | 
[V:2] d6c=B | 
[V:3] =B3cd4- | 
[V:4] G,,8 | 
[V:1] F2G4F2 | 
[V:2] A3GA4 | 
[V:3] d4d4 | 
[V:4] D,4D,4 | 
[V:1] G2A3GG2- | 
[V:2] z8 | 
[V:3] c6=B2 | 
[V:4] E,2F,4G,2 | 
[V:1] G2F3EE2- | 
[V:2] d4dc=BA | 
[V:3] A4G4 | 
[V:4] D,4z2G,2- | 
[V:1] E2D4^C2 | 
[V:2] =B2A2G3A | 
[V:3] z8 | 
[V:4] G,2F,2E,4 | 
[V:1] D4z2d2- | 
[V:2] B2A3GFE | 
[V:3] d4d3c | 
[V:4] D,8 | 
[V:1] d2c4=B2- | 
[V:2] D2F4G2 | 
[V:3] =B2A4G2 | 
[V:4] z8 | 
[V:1] BAA4G2- | 
[V:2] F2A2E4 | 
[V:3] A2c2=B4 | 
[V:4] z8 | 
[V:1] GFF4E2 | 
[V:2] F4G4 | 
[V:3] A4z4 | 
[V:4] D,4C,4 | 
[V:1] F3GA3=B | 
[V:2] F2f4ed | 
[V:3] D8 | 
[V:4] F,3E,D,2C,=B,, | 
[V:1] c2d4^c2 | 
[V:2] e2f2e4 | 
[V:3] A8 | 
[V:4] A,,8 | 
[V:1] d6c=B | 
[V:2] d4B3c | 
[V:3] =B3cd4- | 
[V:4] z4G,4 | 
[V:1] A2=B2A3G/F/ | 
[V:2] d3ef4 | 
[V:3] d4d4 | 
[V:4] F,2G,2F,2D,2 | 
[V:1] E4G4 | 
[V:2] z4z2e2 | 
[V:3] c6=B2 | 
[V:4] A,3G,/F,/E,4 | 
[V:1] A2c4=B2 | 
[V:2] f2ecd4 | 
[V:3] A4G4 | 
[V:4] z2C,2G,,4 | 
[V:1] c2A2G4 | 
[V:2] c2f3eed | 
[V:3] z8 | 
[V:4] A,,2F,,2C,4 | 
[V:1] F8 | 
[V:2] f2F3EF2 | 
[V:3] d4d3c | 
[V:4] D,3C,B,,2A,,2 | 
[V:1] z8 | 
[V:2] G2C2D3E | 
[V:3] =B2A4G2 | 
[V:4] G,,2A,,2B,,4 | 
[V:1] z2A3GG2- | 
[V:2] FGEFG4 | 
[V:3] A2c2=B4 | 
[V:4] A,,4z4 | 
[V:1] G2^F2G4 | 
[V:2] z8 | 
[V:3] A4z2G2 | 
[V:4] D,4_E,4 | 
[V:1] F3E/D/E4- | 
[V:2] z2F2G2A2- | 
[V:3] A2=B2c4- | 
[V:4] D,4C,4- | 
[V:1] E4z4 | 
[V:2] AGG4^F2 | 
[V:3] c4c4 | 
[V:4] C,2B,,2A,,4 | 
[V:1] z4F4- | 
[V:2] G4D4 | 
[V:3] =B4A4 | 
[V:4] G,,4z2D,2- | 
[V:1] F2EDC2D2- | 
[V:2] A4A4- | 
[V:3] z2A4GF | 
[V:4] D,2C,B,,A,,4- | 
[V:1] D2^C2DEFG | 
[V:2] A2G2F4 | 
[V:3] E4D4 | 
[V:4] A,,4B,,2D,2 | 
[V:1] E2D4A2- | 
[V:2] G4z4 | 
[V:3] G3A=B2c2- | 
[V:4] C,2B,,2G,,2F,,2 | 
[V:1] AGG4^F2 | 
[V:2] z2e4d2 | 
[V:3] c=BG2A4 | 
[V:4] F,2E,2C,2D,2 | 
[V:1] G3A=B2c2- | 
[V:2] =B2e3dc2 | 
[V:3] G4z4 | 
[V:4] E,2C,3=B,,A,,2 | 
[V:1] c2=B2c4 | 
[V:2] d4c3=B | 
[V:3] G4A2=B2 | 
[V:4] G,,4z4 | 
[V:1] z2A4GF | 
[V:2] AGF4ED | 
[V:3] c8 | 
[V:4] z8 | 
[V:1] E3DC4 | 
[V:2] C4z2c2- | 
[V:3] c4A4- | 
[V:4] z2C,2F,3G, | 
[V:1] F2G2A2G2- | 
[V:2] c2=BAG2c2- | 
[V:3] A2G2F2E2 | 
[V:4] A,2E,2F,2C,2 | 
[V:1] GFF4E2 | 
[V:2] cAB2c3=B | 
[V:3] D4C4 | 
[V:4] F,4G,4 | 
[V:1] F2C2D4 | 
[V:2] AGc4=B2 | 
[V:3] z8 | 
[V:4] F,2A,2G,4 | 
[V:1] C8 | 
[V:2] c2e4c2- | 
[V:3] G4E4 | 
[V:4] C,8 | 
[V:1] z8 | 
[V:2] c2c4=BA | 
[V:3] A6GF | 
[V:4] F,8 | 
[V:1] z8 | 
[V:2] c2=B2A2=B2- | 
[V:3] A2G2F2G2- | 
[V:4] z4z2C,2- | 
[V:1] z8 | 
[V:2] BAd4^c2 | 
[V:3] GFD2E4 | 
[V:4] C,2B,,2A,,4 | 
[V:1] z8 | 
[V:2] d2A2d3c | 
[V:3] D8 | 
[V:4] z4z2D,2 | 
[V:1] z8 | 
[V:2] =BAd4^c2 | 
[V:3] z8 | 
[V:4] G,3F,E,4 | 
[V:1] z4z2D2 | 
[V:2] d3c=B3A | 
[V:3] z2D2G3F | 
[V:4] z8 | 
[V:1] G3FE4 | 
[V:2] G2E2GFED | 
[V:3] E4z2E2 | 
[V:4] C,8 | 
[V:1] z4z2E2 | 
[V:2] C4c4 | 
[V:3] GFEDC4 | 
[V:4] E,2G,3F,E,D, | 
[V:1] GFEDC4 | 
[V:2] c3=BA4 | 
[V:3] z8 | 
[V:4] C,4F,4 | 
[V:1] z4z2E2 | 
[V:2] G8 | 
[V:3] z2E2G3F | 
[V:4] C,3B,,A,,2C,2- | 
[V:1] G3FE4 | 
[V:2] z2G2c3B | 
[V:3] E4A3G | 
[V:4] C,D,E,2A,,4- | 
[V:1] A3GF2E2 | 
[V:2] A4z4 | 
[V:3] F2E2D2C2 | 
[V:4] A,,4B,,2C,2 | 
[V:1] D2C2D3E | 
[V:2] z8 | 
[V:3] G2A2B4 | 
[V:4] B,,2A,,2G,,4 | 
[V:1] F2E3DD2- | 
[V:2] c3BA2B2 | 
[V:3] A3GF2G2 | 
[V:4] F,,2C,2D,2G,,2 | 
[V:1] D2C2D2E2- | 
[V:2] A4z2c2 | 
[V:3] E4D2C2 | 
[V:4] A,,4B,,2A,,2 | 
[V:1] E2D4^C2 | 
[V:2] B2G2A4- | 
[V:3] D4E4 | 
[V:4] G,,2B,,2A,,4 | 
[V:1] D8- | 
[V:2] A2GAB4 | 
[V:3] D8- | 
[V:4] D,8- | 
[V:1] D8 |]  
[V:2] A8 |]  
[V:3] D8 |]  
[V:4] D,8 |]  



